X:1
T: Big Barney
C:
R:Jig
Q:180
K:G
M:6/8
L:1/16
|:G2B2d2 g2f2e2|d2e2c2 B4c2|d2B2G2 G4A2|B2G2E2 E4F2|
G2B2d2 g2f2e2|d2e2c2 B4c2|d2B2G2 A2B2c2|B2G2G2 G4d2|
g2f2g2 e2f2g2|d2e2c2 B2A2G2|g2f2g2 e2f2g2|f2d2d2 d4d2|
e2f2g2 g2f2e2|d2e2c2 B4c2|d2B2G2 G2B2c2|B2G2G2 G6:|
